static/img/misc/yelp-logo.svg

<svg fill="none" height="79" viewBox="0 0 161 79" width="161" xmlns="http://www.w3.org/2000/svg"><path d="m158.044 43.6569c-1.027-.776-1.196-.8948-7.367-2.9272 5.345-1.3145 5.575-1.4543 6.522-2.0773 2.146-1.4543 3.292-3.8668 3.126-6.4799l-.022-.2851c-.435-4.1941-5.838-12.1073-9.475-13.8836-2.4-1.1456-5.068-.9846-7.169.4276-.99.6545-1.122.7443-5.184 6.2898-.396-6.4799-1.159-17.90622-1.346-18.97521l-.04-.24547-.061-.23755c-.694-2.51015-2.663-4.39474-5.271-5.049332-4.352-1.084828-15.863 2.159092-18.951 5.342312-1.813 1.89251-2.51 4.43961-1.885 6.82835l.127.4751.214.4408c.295.6097 1.074 1.9004 7.755 12.3818l2.462 3.8801c-5.981-2.4468-6.218-2.4548-7.456-2.4653-2.357-.103-4.72 1.1587-6.142 3.3864l-.027.0423c-.734 1.1825-1.188 2.7899-1.47 4.4739-1.927-2.5973-4.828-4.6798-9.2249-5.5429-3.1173-.6256-6.0418-.2481-8.7974.8657-2.5234-1.6101-5.9917-1.7975-8.8925-.1425-.8947.5094-1.5652 1.1165-2.0904 1.7632v-3.5581l-.2772-2.1142-.0844-.3801c-.5834-2.2937-2.3149-4.2284-4.6323-5.1786l-.0211-.0106c-2.5445-1.0268-5.3978-.7813-7.8182.6678-2.5788 1.523-3.9012 4.0516-3.9012 7.5093v7.256c-.9185-1.4306-2.0535-2.6712-3.397-3.69-3.6213-2.7451-8.478-3.6715-14.0367-2.6738-3.2229.5595-5.9178 1.9664-8.0531 4.0305-.0343-.066-.0686-.1478-.103-.2138-1.0848-1.9427-2.8453-3.2783-5.0994-3.8695-3.7639-1.0321-8.5414.2481-10.5131 6.9788 0 0-.3194 1.0874-.7575 2.5735-.8631-1.5837-3.1014-5.9098-3.1938-6.0392-2.0166-3.0565-6.05497-4.3815-9.66579-2.9456-3.48939 1.3144-5.508604 4.3842-5.508604 7.9923 0 1.1376.197957 2.3228.612356 3.5264l.102948.293s7.16883 14.6016 9.24349 18.8274c-3.33369.8789-5.70922 3.3653-6.09459 6.7756-.03959.3246-.06071.6519-.06071.9739 0 2.1697.90007 4.2417 2.55239 5.762 2.5075 2.3148 6.40341 3.0803 10.97761 2.1433 4.9701-.9766 7.8287-3.9724 9.8321-10.3257l3.0486-9.5787c.9924 4.0332 2.7978 6.6674 4.5108 8.3566 2.4627 2.4363 6.9736 5.1312 14.4407 4.1229 5.5482-.776 9.3886-3.2598 11.4632-6.179l.1347.7047c.5912 2.0826 2.1987 3.9329 4.3577 4.9174 2.2568 1.0452 4.8699 1.0267 7.161-.0475 1.1956-.52 2.2092-1.3409 2.9984-2.3676v3.0195c0 4.9913 2.8876 7.1134 4.6086 7.9369 2.2462 1.1297 4.9358 1.2195 7.277.2033 2.2119-.9581 3.8537-2.782 4.4977-4.9966l.1003-.3404.3009-2.0588s0-.7945 0-.8843c3.0011.3062 6.1342-.1821 8.8924-1.6127 1.219-.6335 2.286-1.3963 3.239-2.2726h2.027c1.103.5807 2.357.9423 3.706.9423 1.354 0 2.605-.3616 3.705-.9423h5.879c3.893 2.1908 9.584 3.851 12.63 3.3284 2.623-.4646 4.69-2.1538 5.564-4.5214l.044-.1188c.37-1.0769.431-1.2775.457-7.3615 3.336 5.3898 3.511 5.5323 4.448 6.2714 2.014 1.5705 4.661 1.9162 7.105.9317 3.925-1.5758 9.922-9.1986 10.524-13.3822.05-.3642.079-.7337.079-1.0954 0-2.1907-.945-4.2205-2.637-5.5719zm-60.9061-14.2057c.008.0053.0132.0053.0212.0053.0052.0053.0105.0053.0184.0053zm52.9451 34.2552h-.005c-.008 0-.01.0079-.018.0106z" fill="#fff"/><path d="m97.1379 29.4487c.0123.0061.0153.0061.0245.0061.0092.0061.0122.0061.0245.0061z" stroke="#bdbcbc" stroke-linecap="round" stroke-linejoin="round" stroke-width=".077694"/><path d="m150.093 63.7041h-.01c-.007 0-.01.0103-.021.0137z" stroke="#bdbcbc" stroke-linecap="round" stroke-linejoin="round" stroke-width=".077694"/><g fill="#e9e9e9"><path d="m111.357 35.207c-.953 1.5257-1.352 6.319-1.022 9.5048.114 1.0505.301 1.9269.583 2.4468.381.7259 1.019 1.1588 1.748 1.1825.462.0238.755-.0528 9.539-2.8849 0 0 3.904-1.2406 3.925-1.2485.966-.2508 1.626-1.1429 1.689-2.2858.063-1.1746-.546-2.2066-1.539-2.5814l-2.755-1.1244c-9.444-3.8959-9.864-4.0437-10.345-4.049-.725-.0343-1.372.3378-1.823 1.0399z"/><path d="m132.47 64.2184c.156-.4434.172-.747.196-9.9746 0 0 .023-4.078.031-4.1229.058-.9924-.586-1.9057-1.647-2.3148-1.09-.4223-2.264-.1636-2.927.6599 0 0-1.921 2.2805-1.929 2.2831-6.612 7.7733-6.889 8.127-7.048 8.5915-.1.2693-.14.5543-.108.8447.042.4091.224.8235.538 1.193 1.531 1.8292 8.888 4.5347 11.231 4.1335.816-.1479 1.413-.6124 1.663-1.2934z"/><path d="m147.383 61.0059c2.223-.8842 7.064-7.0395 7.401-9.4045.117-.8262-.14-1.5335-.71-1.9902-.367-.2797-.66-.388-9.431-3.2703 0 0-3.856-1.2722-3.898-1.2933-.937-.3643-1.998-.0291-2.713.8552-.745.9053-.861 2.0957-.262 3.0011l1.55 2.5207c5.213 8.4674 5.606 9.0639 5.981 9.3596.58.4513 1.322.5331 2.082.2217z"/><path d="m142.856 39.2151c9.977-2.4125 10.36-2.5392 10.756-2.7979.605-.4117.903-1.0874.853-1.9241 0-.0291.002-.0528 0-.0819-.259-2.4468-4.548-8.8211-6.662-9.8558-.753-.3563-1.502-.3326-2.12.0792-.385.2587-.673.6282-6.01 7.9396 0 0-2.415 3.2888-2.444 3.3178-.636.7707-.644 1.8819-.027 2.8348.642.9845 1.735 1.4649 2.732 1.1878 0 0-.045.0686-.053.0844.489-.1874 1.376-.4038 2.975-.7839z"/><path d="m132.837 30.9762c-.174-3.9539-1.359-21.55665-1.499-22.36961-.203-.74433-.781-1.26959-1.613-1.47811-2.542-.63347-12.279 2.09839-14.081 3.95922-.576.6018-.792 1.3488-.621 2.0087.283.5806 12.343 19.5559 12.343 19.5559 1.784 2.8929 3.238 2.4415 3.713 2.2937s1.922-.5992 1.758-3.9698z"/></g><path d="m112.154 33.2087c-.95 1.523-1.351 6.319-1.021 9.5022.116 1.0505.306 1.9268.583 2.4494.38.7232 1.019 1.1535 1.747 1.1799.468.0237.758-.0555 9.542-2.8797 0 0 3.904-1.2458 3.92-1.2538.974-.2481 1.628-1.1429 1.692-2.2858.063-1.1719-.542-2.2066-1.539-2.5814 0 0-2.753-1.1217-2.758-1.1217-9.439-3.8933-9.864-4.0464-10.339-4.0517-.729-.029-1.376.3379-1.827 1.0426z" fill="#bf2519"/><path d="m133.27 62.2184c.153-.4434.172-.747.198-9.9746 0 0 .021-4.078.024-4.1176.063-1.0004-.584-1.911-1.642-2.3175-1.09-.4196-2.265-.161-2.925.6599 0 0-1.926 2.2858-1.932 2.2858-6.612 7.768-6.889 8.127-7.05 8.5862-.097.2693-.137.5596-.105.8473.039.4118.227.8183.535 1.1983 1.534 1.8213 8.888 4.5268 11.237 4.1256.815-.1479 1.409-.6071 1.66-1.2934z" fill="#bf2519"/><path d="m148.188 59.0055c2.217-.8842 7.053-7.0369 7.393-9.4045.119-.8235-.14-1.5335-.707-1.9875-.372-.2798-.655-.388-9.434-3.2703 0 0-3.851-1.2723-3.901-1.296-.932-.3616-1.995-.0264-2.711.8552-.744.9053-.855 2.101-.261 3.0037l1.55 2.5233c5.21 8.4622 5.608 9.0614 5.983 9.3544.581.4566 1.32.5305 2.088.2217z" fill="#bf2519"/><path d="m143.651 37.2197c9.977-2.4178 10.362-2.5445 10.755-2.8031.605-.4065.908-1.0875.856-1.9163 0-.0264.005-.0554 0-.0845-.256-2.4494-4.548-8.8211-6.662-9.8558-.75-.359-1.5-.3352-2.123.0818-.385.2508-.667.6309-6.01 7.9369 0 0-2.412 3.2862-2.441 3.3179-.636.7733-.647 1.8819-.024 2.8321.644.9846 1.732 1.465 2.729 1.1878 0 0-.039.0713-.05.0845.491-.1848 1.37-.4012 2.97-.7813z" fill="#bf2519"/><path d="m133.637 28.9812c-.172-3.9539-1.362-21.55927-1.502-22.37487-.201-.73905-.779-1.26695-1.607-1.47547-2.547-.63083-12.282 2.09575-14.085 3.95659-.58.60444-.794 1.34875-.62 2.00865.285.5833 12.345 19.5586 12.345 19.5586 1.782 2.8902 3.236 2.4415 3.714 2.291.472-.1451 1.919-.5938 1.755-3.9645z" fill="#bf2519"/><path d="m10.1037 70.7132c1.2564 1.164 3.6372 1.494 6.5301.9054 2.7107-.5358 4.3921-1.7474 6.0101-6.8917l8.0583-25.318c.4171-1.3434.3854-2.5101-.0924-3.3759-.388-.6968-1.0346-1.1692-1.9479-1.4121-1.4359-.3933-3.2281-.3537-4.3578 3.5053l-4.2284 14.3614s-8.6127-16.2698-8.618-16.2724c-.5437-1.0875-2.13794-1.8661-3.76122-1.2221-2.11687.805-2.82161 2.7081-1.97697 5.1602 0 0 10.47609 21.3191 10.49989 21.3772 0 0 .285.7601.285.8842 0 0 .0951.578.0951.5992-.0212.8208-.2957 1.5124-.7866 1.9743-.483.454-1.1535.6915-1.9374.6599 0 0-1.6338-.037-1.7579-.037-1.6787.2059-2.73449 1.1693-2.90342 2.658-.11877.9581.19004 1.8001.88952 2.4441z" fill="#231f20"/><path d="m51.3826 46.7056h-11.2178c-.3036-.2217-.4514-.5938-.2244-1.713.1426-.5886.2956-1.1165.7444-1.8555.1451-.2218.2956-.4488.4407-.6758.8209-1.0373 1.9321-1.7024 3.1965-1.998 3.9434-.9635 6.6937 1.0399 7.1398 4.458.2138 1.4914.0739 1.7843-.0792 1.7843zm6.8943-1.9532c-.3616-3.6583-1.7737-6.5142-4.0885-8.2642-2.4653-1.8714-5.9547-2.4679-10.0855-1.7289-5.1787.8975-8.288 4.598-9.0007 10.7163-.8763 7.314.3273 12.8253 3.4921 15.9425 2.3861 2.3571 5.9151 3.2941 10.2069 2.7134 6.1209-.8605 8.8739-4.2205 8.8739-6.3453 0-1.5626-.9449-2.7926-2.3333-2.98-.7945-.1584-1.4649 0-2.9483 1.3277-2.138 1.8634-4.6165 2.6131-6.8125 2.0561-1.6734-.4249-2.98-1.5784-3.5712-3.1594 0 0-.264-1.0453-.2481-.9291-.1795-.9423-.2613-1.8767.3193-2.2568l.1558-.1056h13.4455c1.2406 0 1.8688-.161 2.2304-.5516.739-.8209.681-3.1648.3642-6.4351" fill="#231f20"/><path d="m70.4661 25.4059c-1.0637-.4329-2.2647-.3167-3.3178.3115-1.0136.5991-1.4359 1.5124-1.4359 3.1621v32.0592s.1768 1.1455.1953 1.1956c.227.7998.8183 1.4808 1.6391 1.853.9107.4223 1.9612.4144 2.9008-.0264 1.1693-.5068 1.8582-1.6761 1.8582-3.1252v-32.1199s-.2032-1.552-.2032-1.581c-.1874-.7444-.8024-1.3884-1.6365-1.7289z" fill="#231f20"/><path d="m95.837 57.9683c-4.4396 0-5.147-3.9407-5.2869-6.9154-.0079-.0079-.0581-1.7421-.0581-1.7421s.0502-1.288.0502-1.3382c.2877-5.147 1.3514-7.1767 4.0674-7.7416 1.8239-.4223 3.2176-.2164 4.2628.6256 1.5706 1.2643 2.2616 3.9407 2.1986 8.4067-.045 5.2288-.955 8.705-5.234 8.705zm.3299-23.5389c-2.9747-.6071-5.5191-.0976-7.9659 1.56 0 0-.2745.2217-.3801.285l-.2191.1109-.6704.3009-.1901-.7523-.161-.2718-.0554-.169-.0185-.0501s-.1636-.2191-.1874-.2534c-.7021-1.0928-2.6104-1.5943-4.3314-.6124-.842.4778-1.325 1.1508-1.325 3.1595v31.4653c0 1.7236.5411 2.7952 1.7236 3.36.9977.5015 2.1195.5411 3.0829.1267.8182-.3589 1.42-.9924 1.6444-1.7631l.198-1.3488v-5.4453l-.0581-.8763.0237-.2587.0344-.124.3246-1.0373.9845.6546s.2482.1636.3537.2745l.2957.1953c.0026.0026.3431.2006.3431.2006.0053 0 .3167.1531.3167.1531 2.6395 1.2458 6.1711 1.1007 9.0139-.3643 3.5793-1.8687 5.3473-5.1839 5.7563-10.7506.856-11.1254-1.705-16.4413-8.5331-17.769" fill="#231f20"/><path d="m109.961 60.4309h.367c.298 0 .578-.0159.578-.3511 0-.3009-.256-.3326-.486-.3326h-.459zm-.301-.9529h.786c.515 0 .755.1874.755.615 0 .3854-.245.5464-.567.5807l.62.9476h-.325l-.586-.9212h-.382v.9212h-.301zm.694 2.6395c.868 0 1.568-.6836 1.568-1.589 0-.8895-.7-1.5757-1.568-1.5757-.871 0-1.571.6862-1.571 1.5942 0 .8869.7 1.5705 1.571 1.5705zm0-3.4313c1.013 0 1.866.7971 1.866 1.8423 0 1.0637-.853 1.8582-1.866 1.8582-1.016 0-1.866-.7945-1.866-1.8397 0-1.0637.85-1.8608 1.866-1.8608z" fill="#231f20"/></svg>

<svg width="161" height="79" viewBox="0 0 161 79" fill="none" xmlns="http://www.w3.org/2000/svg">
<path d="M158.044 43.6569C157.017 42.8809 156.848 42.7621 150.677 40.7297C156.022 39.4152 156.252 39.2754 157.199 38.6524C159.345 37.1981 160.491 34.7856 160.325 32.1725L160.303 31.8874C159.868 27.6933 154.465 19.7801 150.828 18.0038C148.428 16.8582 145.76 17.0192 143.659 18.4314C142.669 19.0859 142.537 19.1757 138.475 24.7212C138.079 18.2413 137.316 6.81498 137.129 5.74599L137.089 5.50052L137.028 5.26297C136.334 2.75282 134.365 0.86823 131.757 0.213638C127.405 -0.87119 115.894 2.37273 112.806 5.55595C110.993 7.44846 110.296 9.99556 110.921 12.3843L111.048 12.8594L111.262 13.3002C111.557 13.9099 112.336 15.2006 119.017 25.682L121.479 29.5621C115.498 27.1153 115.261 27.1073 114.023 27.0968C111.666 26.9938 109.303 28.2555 107.881 30.4832L107.854 30.5255C107.12 31.708 106.666 33.3154 106.384 34.9994C104.457 32.4021 101.556 30.3196 97.1591 29.4565C94.0418 28.8309 91.1173 29.2084 88.3617 30.3222C85.8383 28.7121 82.37 28.5247 79.4692 30.1797C78.5745 30.6891 77.904 31.2962 77.3788 31.9429V28.3848L77.1016 26.2706L77.0172 25.8905C76.4338 23.5968 74.7023 21.6621 72.3849 20.7119L72.3638 20.7013C69.8193 19.6745 66.966 19.92 64.5456 21.3691C61.9668 22.8921 60.6444 25.4207 60.6444 28.8784V36.1344C59.7259 34.7038 58.5909 33.4632 57.2474 32.4444C53.6261 29.6993 48.7694 28.7729 43.2107 29.7706C39.9878 30.3301 37.2929 31.737 35.1576 33.8011C35.1233 33.7351 35.089 33.6533 35.0546 33.5873C33.9698 31.6446 32.2093 30.309 29.9552 29.7178C26.1913 28.6857 21.4138 29.9659 19.4421 36.6966C19.4421 36.6966 19.1227 37.784 18.6846 39.2701C17.8215 37.6864 15.5832 33.3603 15.4908 33.2309C13.4742 30.1744 9.43583 28.8494 5.82501 30.2853C2.33562 31.5997 0.316406 34.6695 0.316406 38.2776C0.316406 39.4152 0.514363 40.6004 0.928762 41.804L1.03171 42.097C1.03171 42.097 8.20054 56.6986 10.2752 60.9244C6.94151 61.8033 4.56598 64.2897 4.18061 67.7C4.14102 68.0246 4.1199 68.3519 4.1199 68.6739C4.1199 70.8436 5.01997 72.9156 6.67229 74.4359C9.17979 76.7507 13.0757 77.5162 17.6499 76.5792C22.62 75.6026 25.4786 72.6068 27.482 66.2535L30.5306 56.6748C31.523 60.708 33.3284 63.3422 35.0414 65.0314C37.5041 67.4677 42.015 70.1626 49.4821 69.1543C55.0303 68.3783 58.8707 65.8945 60.9453 62.9753L61.08 63.68C61.6712 65.7626 63.2787 67.6129 65.4377 68.5974C67.6945 69.6426 70.3076 69.6241 72.5987 68.5499C73.7943 68.0299 74.8079 67.209 75.5971 66.1823V69.2018C75.5971 74.1931 78.4847 76.3152 80.2057 77.1387C82.4519 78.2684 85.1415 78.3582 87.4827 77.342C89.6946 76.3839 91.3364 74.56 91.9804 72.3454L92.0807 72.005L92.3816 69.9462C92.3816 69.9462 92.3816 69.1517 92.3816 69.0619C95.3827 69.3681 98.5158 68.8798 101.274 67.4492C102.493 66.8157 103.56 66.0529 104.513 65.1766H106.54C107.643 65.7573 108.897 66.1189 110.246 66.1189C111.6 66.1189 112.851 65.7573 113.951 65.1766H119.83C123.723 67.3674 129.414 69.0276 132.46 68.505C135.083 68.0404 137.15 66.3512 138.024 63.9836L138.068 63.8648C138.438 62.7879 138.499 62.5873 138.525 56.5033C141.861 61.8931 142.036 62.0356 142.973 62.7747C144.987 64.3452 147.634 64.6909 150.078 63.7064C154.003 62.1306 160 54.5078 160.602 50.3242C160.652 49.96 160.681 49.5905 160.681 49.2288C160.681 47.0381 159.736 45.0083 158.044 43.6569ZM97.1379 29.4512C97.1459 29.4565 97.1511 29.4565 97.1591 29.4565C97.1643 29.4618 97.1696 29.4618 97.1775 29.4618L97.1379 29.4512ZM150.083 63.7064H150.078C150.07 63.7064 150.068 63.7143 150.06 63.717L150.083 63.7064Z" fill="white"/>
<path d="M97.1379 29.4487C97.1502 29.4548 97.1532 29.4548 97.1624 29.4548C97.1716 29.4609 97.1746 29.4609 97.1869 29.4609L97.1379 29.4487Z" stroke="#BDBCBC" stroke-width="0.0776938" stroke-linecap="round" stroke-linejoin="round"/>
<path d="M150.093 63.7041H150.083C150.076 63.7041 150.073 63.7144 150.062 63.7178L150.093 63.7041Z" stroke="#BDBCBC" stroke-width="0.0776938" stroke-linecap="round" stroke-linejoin="round"/>
<path d="M111.357 35.207C110.404 36.7327 110.005 41.526 110.335 44.7118C110.449 45.7623 110.636 46.6387 110.918 47.1586C111.299 47.8845 111.937 48.3174 112.666 48.3411C113.128 48.3649 113.421 48.2883 122.205 45.4562C122.205 45.4562 126.109 44.2156 126.13 44.2077C127.096 43.9569 127.756 43.0648 127.819 41.9219C127.882 40.7473 127.273 39.7153 126.28 39.3405L123.525 38.2161C114.081 34.3202 113.661 34.1724 113.18 34.1671C112.455 34.1328 111.808 34.5049 111.357 35.207Z" fill="#E9E9E9"/>
<path d="M132.47 64.2184C132.626 63.775 132.642 63.4714 132.666 54.2438C132.666 54.2438 132.689 50.1658 132.697 50.1209C132.755 49.1285 132.111 48.2152 131.05 47.8061C129.96 47.3838 128.786 47.6425 128.123 48.466C128.123 48.466 126.202 50.7465 126.194 50.7491C119.582 58.5224 119.305 58.8761 119.146 59.3406C119.046 59.6099 119.006 59.8949 119.038 60.1853C119.08 60.5944 119.262 61.0088 119.576 61.3783C121.107 63.2075 128.464 65.913 130.807 65.5118C131.623 65.3639 132.22 64.8994 132.47 64.2184Z" fill="#E9E9E9"/>
<path d="M147.383 61.0059C149.606 60.1217 154.447 53.9664 154.784 51.6014C154.901 50.7752 154.644 50.0679 154.074 49.6112C153.707 49.3315 153.414 49.2232 144.643 46.3409C144.643 46.3409 140.787 45.0687 140.745 45.0476C139.808 44.6833 138.747 45.0185 138.032 45.9028C137.287 46.8081 137.171 47.9985 137.77 48.9039L139.32 51.4246C144.533 59.892 144.926 60.4885 145.301 60.7842C145.881 61.2355 146.623 61.3173 147.383 61.0059Z" fill="#E9E9E9"/>
<path d="M142.856 39.2151C152.833 36.8026 153.216 36.6759 153.612 36.4172C154.217 36.0055 154.515 35.3298 154.465 34.4931C154.465 34.464 154.467 34.4403 154.465 34.4112C154.206 31.9644 149.917 25.5901 147.803 24.5554C147.05 24.1991 146.301 24.2228 145.683 24.6346C145.298 24.8933 145.01 25.2628 139.673 32.5742C139.673 32.5742 137.258 35.863 137.229 35.892C136.593 36.6627 136.585 37.7739 137.202 38.7268C137.844 39.7113 138.937 40.1917 139.934 39.9146C139.934 39.9146 139.889 39.9832 139.881 39.999C140.37 39.8116 141.257 39.5952 142.856 39.2151Z" fill="#E9E9E9"/>
<path d="M132.837 30.9762C132.663 27.0223 131.478 9.41955 131.338 8.60659C131.135 7.86226 130.557 7.337 129.725 7.12848C127.183 6.49501 117.446 9.22687 115.644 11.0877C115.068 11.6895 114.852 12.4365 115.023 13.0964C115.306 13.677 127.366 32.6523 127.366 32.6523C129.15 35.5452 130.604 35.0938 131.079 34.946C131.554 34.7982 133.001 34.3468 132.837 30.9762Z" fill="#E9E9E9"/>
<path d="M112.154 33.2087C111.204 34.7317 110.803 39.5277 111.133 42.7109C111.249 43.7614 111.439 44.6377 111.716 45.1603C112.096 45.8835 112.735 46.3138 113.463 46.3402C113.931 46.3639 114.221 46.2847 123.005 43.4605C123.005 43.4605 126.909 42.2147 126.925 42.2067C127.899 41.9586 128.553 41.0638 128.617 39.9209C128.68 38.749 128.075 37.7143 127.078 37.3395C127.078 37.3395 124.325 36.2178 124.32 36.2178C114.881 32.3245 114.456 32.1714 113.981 32.1661C113.252 32.1371 112.605 32.504 112.154 33.2087Z" fill="#BF2519"/>
<path d="M133.27 62.2184C133.423 61.775 133.442 61.4714 133.468 52.2438C133.468 52.2438 133.489 48.1658 133.492 48.1262C133.555 47.1258 132.908 46.2152 131.85 45.8087C130.76 45.3891 129.585 45.6477 128.925 46.4686C128.925 46.4686 126.999 48.7544 126.993 48.7544C120.381 56.5224 120.104 56.8814 119.943 57.3406C119.846 57.6099 119.806 57.9002 119.838 58.1879C119.877 58.5997 120.065 59.0062 120.373 59.3862C121.907 61.2075 129.261 63.913 131.61 63.5118C132.425 63.3639 133.019 62.9047 133.27 62.2184Z" fill="#BF2519"/>
<path d="M148.188 59.0055C150.405 58.1213 155.241 51.9686 155.581 49.601C155.7 48.7775 155.441 48.0675 154.874 47.6135C154.502 47.3337 154.219 47.2255 145.44 44.3432C145.44 44.3432 141.589 43.0709 141.539 43.0472C140.607 42.6856 139.544 43.0208 138.828 43.9024C138.084 44.8077 137.973 46.0034 138.567 46.9061L140.117 49.4294C145.327 57.8916 145.725 58.4908 146.1 58.7838C146.681 59.2404 147.42 59.3143 148.188 59.0055Z" fill="#BF2519"/>
<path d="M143.651 37.2197C153.628 34.8019 154.013 34.6752 154.406 34.4166C155.011 34.0101 155.314 33.3291 155.262 32.5003C155.262 32.4739 155.267 32.4449 155.262 32.4158C155.006 29.9664 150.714 23.5947 148.6 22.56C147.85 22.201 147.1 22.2248 146.477 22.6418C146.092 22.8926 145.81 23.2727 140.467 30.5787C140.467 30.5787 138.055 33.8649 138.026 33.8966C137.39 34.6699 137.379 35.7785 138.002 36.7287C138.646 37.7133 139.734 38.1937 140.731 37.9165C140.731 37.9165 140.692 37.9878 140.681 38.001C141.172 37.8162 142.051 37.5998 143.651 37.2197Z" fill="#BF2519"/>
<path d="M133.637 28.9812C133.465 25.0273 132.275 7.42193 132.135 6.60633C131.934 5.86728 131.356 5.33938 130.528 5.13086C127.981 4.50003 118.246 7.22661 116.443 9.08745C115.863 9.69189 115.649 10.4362 115.823 11.0961C116.108 11.6794 128.168 30.6547 128.168 30.6547C129.95 33.5449 131.404 33.0962 131.882 32.9457C132.354 32.8006 133.801 32.3519 133.637 28.9812Z" fill="#BF2519"/>
<path d="M10.1037 70.7132C11.3601 71.8772 13.7409 72.2072 16.6338 71.6186C19.3445 71.0828 21.0259 69.8712 22.6439 64.7269L30.7022 39.4089C31.1193 38.0655 31.0876 36.8988 30.6098 36.033C30.2218 35.3362 29.5752 34.8638 28.6619 34.6209C27.226 34.2276 25.4338 34.2672 24.3041 38.1262L20.0757 52.4876C20.0757 52.4876 11.463 36.2178 11.4577 36.2152C10.914 35.1277 9.31976 34.3491 7.69648 34.9931C5.57961 35.7981 4.87487 37.7012 5.71951 40.1533C5.71951 40.1533 16.1956 61.4724 16.2194 61.5305C16.2194 61.5305 16.5044 62.2906 16.5044 62.4147C16.5044 62.4147 16.5995 62.9927 16.5995 63.0139C16.5783 63.8347 16.3038 64.5263 15.8129 64.9882C15.3299 65.4422 14.6594 65.6797 13.8755 65.6481C13.8755 65.6481 12.2417 65.6111 12.1176 65.6111C10.4389 65.817 9.38311 66.7804 9.21418 68.2691C9.09541 69.2272 9.40422 70.0692 10.1037 70.7132Z" fill="#231F20"/>
<path d="M51.3826 46.7056H40.1648C39.8612 46.4839 39.7134 46.1118 39.9404 44.9926C40.083 44.404 40.236 43.8761 40.6848 43.1371C40.8299 42.9153 40.9804 42.6883 41.1255 42.4613C41.9464 41.424 43.0576 40.7589 44.322 40.4633C48.2654 39.4998 51.0157 41.5032 51.4618 44.9213C51.6756 46.4127 51.5357 46.7056 51.3826 46.7056ZM58.2769 44.7524C57.9153 41.0941 56.5032 38.2382 54.1884 36.4882C51.7231 34.6168 48.2337 34.0203 44.1029 34.7593C38.9242 35.6568 35.8149 39.3573 35.1022 45.4756C34.2259 52.7896 35.4295 58.3009 38.5943 61.4181C40.9804 63.7752 44.5094 64.7122 48.8012 64.1315C54.9221 63.271 57.6751 59.911 57.6751 57.7862C57.6751 56.2236 56.7302 54.9936 55.3418 54.8062C54.5473 54.6478 53.8769 54.8062 52.3935 56.1339C50.2555 57.9973 47.777 58.747 45.581 58.19C43.9076 57.7651 42.601 56.6116 42.0098 55.0306C42.0098 55.0306 41.7458 53.9853 41.7617 54.1015C41.5822 53.1592 41.5004 52.2248 42.081 51.8447L42.2368 51.7391H55.6823C56.9229 51.7391 57.5511 51.5781 57.9127 51.1875C58.6517 50.3666 58.5937 48.0227 58.2769 44.7524" fill="#231F20"/>
<path d="M70.4661 25.4059C69.4024 24.973 68.2014 25.0892 67.1483 25.7174C66.1347 26.3165 65.7124 27.2298 65.7124 28.8795V60.9387C65.7124 60.9387 65.8892 62.0842 65.9077 62.1343C66.1347 62.9341 66.726 63.6151 67.5468 63.9873C68.4575 64.4096 69.508 64.4017 70.4476 63.9609C71.6169 63.4541 72.3058 62.2848 72.3058 60.8357V28.7158C72.3058 28.7158 72.1026 27.1638 72.1026 27.1348C71.9152 26.3904 71.3002 25.7464 70.4661 25.4059Z" fill="#231F20"/>
<path d="M95.837 57.9683C91.3974 57.9683 90.69 54.0276 90.5501 51.0529C90.5422 51.045 90.492 49.3108 90.492 49.3108C90.492 49.3108 90.5422 48.0228 90.5422 47.9726C90.8299 42.8256 91.8936 40.7959 94.6096 40.231C96.4335 39.8087 97.8272 40.0146 98.8724 40.8566C100.443 42.1209 101.134 44.7973 101.071 49.2633C101.026 54.4921 100.116 57.9683 95.837 57.9683ZM96.1669 34.4294C93.1922 33.8223 90.6478 34.3318 88.201 35.9894C88.201 35.9894 87.9265 36.2111 87.8209 36.2744L87.6018 36.3853L86.9314 36.6862L86.7413 35.9339L86.5803 35.6621L86.5249 35.4931L86.5064 35.443C86.5064 35.443 86.3428 35.2239 86.319 35.1896C85.6169 34.0968 83.7086 33.5953 81.9876 34.5772C81.1456 35.055 80.6626 35.728 80.6626 37.7367V69.202C80.6626 70.9256 81.2037 71.9972 82.3862 72.562C83.3839 73.0635 84.5057 73.1031 85.4691 72.6887C86.2873 72.3298 86.8891 71.6963 87.1135 70.9256L87.3115 69.5768V64.1315L87.2534 63.2552L87.2771 62.9965L87.3115 62.8725L87.6361 61.8352L88.6206 62.4898C88.6206 62.4898 88.8688 62.6534 88.9743 62.7643L89.27 62.9596C89.2726 62.9622 89.6131 63.1602 89.6131 63.1602C89.6184 63.1602 89.9298 63.3133 89.9298 63.3133C92.5693 64.5591 96.1009 64.414 98.9437 62.949C102.523 61.0803 104.291 57.7651 104.7 52.1984C105.556 41.073 102.995 35.7571 96.1669 34.4294" fill="#231F20"/>
<path d="M109.961 60.4309H110.328C110.626 60.4309 110.906 60.415 110.906 60.0798C110.906 59.7789 110.65 59.7472 110.42 59.7472H109.961V60.4309ZM109.66 59.478H110.446C110.961 59.478 111.201 59.6654 111.201 60.093C111.201 60.4784 110.956 60.6394 110.634 60.6737L111.254 61.6213H110.929L110.343 60.7001H109.961V61.6213H109.66V59.478ZM110.354 62.1175C111.222 62.1175 111.922 61.4339 111.922 60.5285C111.922 59.639 111.222 58.9528 110.354 58.9528C109.483 58.9528 108.783 59.639 108.783 60.547C108.783 61.4339 109.483 62.1175 110.354 62.1175V62.1175ZM110.354 58.6862C111.367 58.6862 112.22 59.4833 112.22 60.5285C112.22 61.5922 111.367 62.3867 110.354 62.3867C109.338 62.3867 108.488 61.5922 108.488 60.547C108.488 59.4833 109.338 58.6862 110.354 58.6862Z" fill="#231F20"/>
</svg>
